!! 00000] TT[00
!!!OTL: Zou jiangzhou
!!!ARE: Asia, China, Shanxi
!! Ethnic Group: Han
!! Zhongguo Minge xuan, S. 146
!!!SCT: C0028
!!!YEM: Copyright 1995, estate of Helmut Schaffrath.
**kern
*ICvox
*Ivox
*M2/4
*k[f#c#g#]
*A:
{8.a
16f#
4e
=1
8.a
16f#
4e
=2
8ee
8aa
8ee
8dd
=3
8ee
4b
8a
=4
2b}
=5
{8ee
8aa
8ee
8aa
=6
8ee
8aa
8ee
8aa
=7
8ee
4b
8a
=8
2b}
=9
{4ee
8.b
16b
=10
8.ee
16ff#
8b
8a
=11
8a
8g#
8a
8b
=12
2e}
=13
{8a
8b
8a
16b
16b
=14
8e
8d
8e
8r
=15
8a
8b
8a
8b
=16
16e
16e
16e
16d
8e
8r}
=17
{8.a
16b
8ee
8aa
=18
4ee
8b
8a
=19
8a
8g#
8a
8b
=20
2e}
==
!!!AGN: Xiaodiao
!! Der Ton "d" (5) ist leicht erh”ht
!!!ONB: ESAC (Essen Associative Code) Database: CHINA_008
!!!AMT: simple duple
!!!AIN: vox
!!!EED: Helmut Schaffrath
!!!EEV: 1.0
*-
